extras/source/gallery/symbols/Sign-Warning01-Red.svg

<svg enable-background="new 0 0 106 106" height="106" viewBox="0 0 106 106" width="106" xmlns="http://www.w3.org/2000/svg" xmlns:xlink="http://www.w3.org/1999/xlink"><linearGradient id="a"><stop offset="0" stop-color="#ff5f06"/><stop offset=".1061" stop-color="#f95507"/><stop offset="1" stop-color="#cb0212"/></linearGradient><linearGradient id="b" gradientUnits="userSpaceOnUse" x1="32.5664" x2="83.6527" xlink:href="#a" y1="49.1021" y2="94.9988"/><linearGradient id="c" gradientUnits="userSpaceOnUse" x1="58.0513" x2="43.0892" xlink:href="#a" y1="36.1948" y2="64.0865"/><linearGradient id="d" gradientUnits="userSpaceOnUse" x1="55.6226" x2="47.4424" xlink:href="#a" y1="70.5986" y2="80.3363"/><mask id="e" height="66.803" maskUnits="userSpaceOnUse" width="78.363" x="13.606" y="18.641"><path d="m16.102 59.738s34.28 13.811 76.328-32.184c-15.044-9.864-34.403-13.493-34.403-13.493l-18.074 1.233-12.332 19.562z" fill="url(#f)"/></mask><linearGradient id="f" gradientUnits="userSpaceOnUse" x1="37.3628" x2="57.6197" y1="19.1812" y2="48.5004"><stop offset="0" stop-color="#fff"/><stop offset="1"/></linearGradient><path d="m48.446 20.141-34.484 57.829c-1.104 1.852-1.284 3.624-.507 4.991.776 1.367 2.391 2.119 4.547 2.119h69.327c2.155 0 3.771-.753 4.547-2.12s.596-3.139-.509-4.99l-34.484-57.828c-1.102-1.848-2.599-2.865-4.218-2.865-1.619-.001-3.117 1.016-4.219 2.864z" fill="#82abe0"/><path d="m52.664 16.776c-1.802 0-3.453 1.104-4.648 3.109l-34.483 57.83c-1.2 2.013-1.382 3.964-.513 5.494.869 1.528 2.638 2.371 4.981 2.371h69.327c2.344 0 4.112-.843 4.981-2.372.869-1.53.687-3.481-.513-5.493l-34.484-57.829c-1.196-2.006-2.847-3.11-4.648-3.11zm-39.181 64.337c-.002-.867.29-1.85.909-2.887l34.482-57.829c1.041-1.747 2.416-2.621 3.789-2.621 1.374 0 2.747.874 3.789 2.621l34.484 57.829c.619 1.037.91 2.02.908 2.887-.004 2.054-1.657 3.467-4.518 3.467h-69.325c-2.861 0-4.513-1.413-4.518-3.467z" fill="#bd0000"/><path d="m52.665 18.276c-1.252 0-2.445.844-3.36 2.377l-34.483 57.828c-.558.936-.841 1.829-.841 2.619 0 .502.114.963.343 1.366.591 1.041 1.897 1.613 3.678 1.613h69.327c1.78 0 3.086-.573 3.677-1.613.591-1.041.414-2.456-.498-3.985l-34.484-57.828c-.913-1.532-2.107-2.377-3.359-2.377.001 0 .001 0 0 0z" fill="url(#b)"/><path d="m52.664 17.776c-1.373 0-2.748.874-3.789 2.621l-34.483 57.83c-.619 1.037-.911 2.02-.909 2.887.004 2.054 1.657 3.467 4.518 3.467h69.327c2.86 0 4.514-1.413 4.518-3.467.002-.867-.289-1.85-.908-2.887l-34.485-57.83c-1.042-1.747-2.415-2.621-3.789-2.621zm-34.663 65.804c-1.593 0-2.744-.482-3.242-1.359-.499-.877-.324-2.114.492-3.482l34.482-57.829c.82-1.375 1.861-2.133 2.931-2.133s2.11.758 2.931 2.133l34.483 57.829c.816 1.368.99 2.604.492 3.482-.498.877-1.649 1.359-3.242 1.359z" fill="#ffcdcc"/><path d="m44.345 37.923c-.172-1.346.797-2.446 2.153-2.446h11.591c1.356 0 2.289 1.096 2.072 2.435l-4.351 26.882c-.217 1.339-1.504 2.435-2.859 2.435h-2.405c-1.356 0-2.605-1.102-2.777-2.447z" fill="url(#c)"/><circle cx="51.535" cy="75.465" fill="url(#d)" r="5.693"/><path d="m45.341 37.922c-.177-1.345.787-2.445 2.144-2.445h10.604c1.356 0 2.285 1.095 2.064 2.433l-4.285 25.893c-.223 1.338-1.514 2.433-2.869 2.433h-1.467c-1.357 0-2.611-1.101-2.789-2.445z" fill="#fff"/><circle cx="52.294" cy="74.953" fill="#fff" r="5.446"/><g mask="url(#e)" opacity=".6"><path d="m49.324 21.454-34.484 57.828c-.936 1.568-1.112 3.027-.499 4.107.613 1.081 1.957 1.676 3.783 1.676h69.327c1.826 0 3.17-.595 3.783-1.676.613-1.08.437-2.538-.499-4.107l-34.482-57.828c-.938-1.571-2.168-2.437-3.465-2.437-1.296 0-2.528.866-3.464 2.437z" fill="#fff"/><path d="m52.787 18.641c-1.373 0-2.746.874-3.789 2.621l-34.483 57.828c-.619 1.037-.911 2.019-.909 2.886.004 2.055 1.657 3.468 4.518 3.468h69.327c2.861 0 4.514-1.413 4.519-3.468.002-.867-.29-1.849-.909-2.886l-34.484-57.828c-1.042-1.747-2.416-2.621-3.79-2.621zm-34.663 66.047c-1.684 0-2.911-.527-3.455-1.484-.543-.957-.367-2.279.495-3.727l34.483-57.828c.866-1.452 1.981-2.252 3.14-2.252s2.275.8 3.142 2.252l34.482 57.828c.863 1.447 1.039 2.77.495 3.727-.543.957-1.77 1.484-3.455 1.484z" fill="#ffcdcc"/></g></svg>

<?xml version="1.0" encoding="utf-8"?>
<!-- Generator: Adobe Illustrator 12.0.1, SVG Export Plug-In . SVG Version: 6.00 Build 51448)  -->
<!DOCTYPE svg PUBLIC "-//W3C//DTD SVG 1.1//EN" "http://www.w3.org/Graphics/SVG/1.1/DTD/svg11.dtd" [
	<!ENTITY ns_svg "http://www.w3.org/2000/svg">
	<!ENTITY ns_xlink "http://www.w3.org/1999/xlink">
]>
<svg  version="1.1" id="Layer_1" xmlns="&ns_svg;" xmlns:xlink="&ns_xlink;" width="106" height="106" viewBox="0 0 106 106"
	 overflow="visible" enable-background="new 0 0 106 106" xml:space="preserve">
<g>
	<g>
		<g>
			<path fill="#82ABE0" d="M48.446,20.141L13.962,77.97c-1.104,1.852-1.284,3.624-0.507,4.991c0.776,1.367,2.391,2.119,4.547,2.119
				h69.327c2.155,0,3.771-0.753,4.547-2.12s0.596-3.139-0.509-4.99L56.883,20.142c-1.102-1.848-2.599-2.865-4.218-2.865
				C51.046,17.276,49.548,18.293,48.446,20.141z"/>
			<path fill="#BD0000" d="M52.664,16.776c-1.802,0-3.453,1.104-4.648,3.109L13.533,77.715c-1.2,2.013-1.382,3.964-0.513,5.494
				c0.869,1.528,2.638,2.371,4.981,2.371h69.327c2.344,0,4.112-0.843,4.981-2.372c0.869-1.53,0.687-3.481-0.513-5.493L57.312,19.886
				C56.116,17.88,54.465,16.776,52.664,16.776L52.664,16.776z M13.483,81.113c-0.002-0.867,0.29-1.85,0.909-2.887l34.482-57.829
				c1.041-1.747,2.416-2.621,3.789-2.621c1.374,0,2.747,0.874,3.789,2.621l34.484,57.829c0.619,1.037,0.91,2.02,0.908,2.887
				c-0.004,2.054-1.657,3.467-4.518,3.467H18.001C15.14,84.58,13.488,83.167,13.483,81.113L13.483,81.113z"/>
		</g>
	</g>
	<g>
		<linearGradient id="XMLID_6_" gradientUnits="userSpaceOnUse" x1="32.5664" y1="49.1021" x2="83.6527" y2="94.9988">
			<stop  offset="0" style="stop-color:#FF5F06"/>
			<stop  offset="0.1061" style="stop-color:#F95507"/>
			<stop  offset="1" style="stop-color:#CB0212"/>
		</linearGradient>
		<path fill="url(#XMLID_6_)" d="M52.665,18.276c-1.252,0-2.445,0.844-3.36,2.377L14.822,78.481
			c-0.558,0.936-0.841,1.829-0.841,2.619c0,0.502,0.114,0.963,0.343,1.366c0.591,1.041,1.897,1.613,3.678,1.613h69.327
			c1.78,0,3.086-0.573,3.677-1.613c0.591-1.041,0.414-2.456-0.498-3.985L56.024,20.653C55.111,19.121,53.917,18.276,52.665,18.276
			C52.666,18.276,52.666,18.276,52.665,18.276z"/>
		<path fill="#FFCDCC" d="M52.664,17.776c-1.373,0-2.748,0.874-3.789,2.621L14.392,78.227c-0.619,1.037-0.911,2.02-0.909,2.887
			c0.004,2.054,1.657,3.467,4.518,3.467h69.327c2.86,0,4.514-1.413,4.518-3.467c0.002-0.867-0.289-1.85-0.908-2.887L56.453,20.397
			C55.411,18.65,54.038,17.776,52.664,17.776L52.664,17.776z M18.001,83.58c-1.593,0-2.744-0.482-3.242-1.359
			c-0.499-0.877-0.324-2.114,0.492-3.482L49.733,20.91c0.82-1.375,1.861-2.133,2.931-2.133s2.11,0.758,2.931,2.133l34.483,57.829
			c0.816,1.368,0.99,2.604,0.492,3.482c-0.498,0.877-1.649,1.359-3.242,1.359H18.001L18.001,83.58z"/>
	</g>
	<g>
		<g>
			<linearGradient id="XMLID_7_" gradientUnits="userSpaceOnUse" x1="58.0513" y1="36.1948" x2="43.0892" y2="64.0865">
				<stop  offset="0" style="stop-color:#FF5F06"/>
				<stop  offset="0.1061" style="stop-color:#F95507"/>
				<stop  offset="1" style="stop-color:#CB0212"/>
			</linearGradient>
			<path fill="url(#XMLID_7_)" d="M44.345,37.923c-0.172-1.346,0.797-2.446,2.153-2.446h11.591c1.356,0,2.289,1.096,2.072,2.435
				L55.81,64.794c-0.217,1.339-1.504,2.435-2.859,2.435h-2.405c-1.356,0-2.605-1.102-2.777-2.447L44.345,37.923z"/>
			<linearGradient id="XMLID_8_" gradientUnits="userSpaceOnUse" x1="55.6226" y1="70.5986" x2="47.4424" y2="80.3363">
				<stop  offset="0" style="stop-color:#FF5F06"/>
				<stop  offset="0.1061" style="stop-color:#F95507"/>
				<stop  offset="1" style="stop-color:#CB0212"/>
			</linearGradient>
			<circle fill="url(#XMLID_8_)" cx="51.535" cy="75.465" r="5.693"/>
		</g>
		<g>
			<path fill="#FFFFFF" d="M45.341,37.922c-0.177-1.345,0.787-2.445,2.144-2.445h10.604c1.356,0,2.285,1.095,2.064,2.433
				l-4.285,25.893c-0.223,1.338-1.514,2.433-2.869,2.433h-1.467c-1.357,0-2.611-1.101-2.789-2.445L45.341,37.922z"/>
			<circle fill="#FFFFFF" cx="52.294" cy="74.953" r="5.446"/>
		</g>
	</g>
	<defs>
		<filter id="Adobe_OpacityMaskFilter" filterUnits="userSpaceOnUse" x="13.606" y="18.641" width="78.363" height="66.803">
			<feColorMatrix  type="matrix" values="1 0 0 0 0  0 1 0 0 0  0 0 1 0 0  0 0 0 1 0"/>
		</filter>
	</defs>
	<mask maskUnits="userSpaceOnUse" x="13.606" y="18.641" width="78.363" height="66.803" id="XMLID_9_">
		<g filter="url(#Adobe_OpacityMaskFilter)">
			<linearGradient id="XMLID_10_" gradientUnits="userSpaceOnUse" x1="37.3628" y1="19.1812" x2="57.6197" y2="48.5004">
				<stop  offset="0" style="stop-color:#FFFFFF"/>
				<stop  offset="1" style="stop-color:#000000"/>
			</linearGradient>
			<path fill="url(#XMLID_10_)" d="M16.102,59.738c0,0,34.28,13.811,76.328-32.184C77.386,17.69,58.027,14.061,58.027,14.061
				l-18.074,1.233L27.621,34.856L16.102,59.738z"/>
		</g>
	</mask>
	<g opacity="0.6" mask="url(#XMLID_9_)">
		<path fill="#FFFFFF" d="M49.324,21.454L49.324,21.454L14.84,79.282c-0.936,1.568-1.112,3.027-0.499,4.107
			c0.613,1.081,1.957,1.676,3.783,1.676h69.327c1.826,0,3.17-0.595,3.783-1.676c0.613-1.08,0.437-2.538-0.499-4.107L56.253,21.454
			c-0.938-1.571-2.168-2.437-3.465-2.437C51.492,19.017,50.26,19.883,49.324,21.454z"/>
		<path fill="#FFCDCC" d="M52.787,18.641c-1.373,0-2.746,0.874-3.789,2.621L14.515,79.09c-0.619,1.037-0.911,2.019-0.909,2.886
			c0.004,2.055,1.657,3.468,4.518,3.468h69.327c2.861,0,4.514-1.413,4.519-3.468c0.002-0.867-0.29-1.849-0.909-2.886L56.577,21.262
			C55.535,19.515,54.161,18.641,52.787,18.641L52.787,18.641z M18.124,84.688c-1.684,0-2.911-0.527-3.455-1.484
			c-0.543-0.957-0.367-2.279,0.495-3.727l34.483-57.828c0.866-1.452,1.981-2.252,3.14-2.252c1.159,0,2.275,0.8,3.142,2.252
			l34.482,57.828c0.863,1.447,1.039,2.77,0.495,3.727c-0.543,0.957-1.77,1.484-3.455,1.484H18.124L18.124,84.688z"/>
	</g>
</g>
</svg>
